X: 22239
T: La Garde Partagée
R: reel
M: 4/4
K: Amajor
EAc|:dcBA BBGB|efed cAdc|
BAGE F2 FE|FGAB cedc|Befg aAgA|
fecA FdcA|B2 Bc dfdc|B2 E2 ecBc|
A2>c2 dcBA|BBGB efed|cAdc BAGE|
F2 FE FGAB|cedc Befg|aAgA fecA|
FdcA B2 Bc|dfdc B2 E2|ec Bc A2 cA|dAcA BAGF|
EFGB AFEC|A,2 cA dAcA|B2 GB Beef|edcB A2 cA|
dAcA BAGF|EFGB AFEC|A,2 cA dAcA|B2 GB Beef|
edcB A2 cA|dAcA BAGF|EFGB AFEC|
A,2 cA dAcA|B2 GB Beef|ed cB2< A2c:|

